X: 107
T: Eskimo
C: words: Lydia Avery Coonley.
C: music: Jessie L. Gaynor.
N: Copyright, 1899, by A. Flanagan, Publisher.
Q: "With marked rhythm."
%R: air, march
N: This is version 2, for ABC software that understands voice overlays.
B: "The Everyday Song Book", 1927
F: http://www.library.pitt.edu/happybirthday/pdf/The_Everyday_Song_Book.pdf
Z: 2017 John Chambers <jc:trillian.mit.edu>
M: 4/8
L: 1/8
K: Dm
V: 1
V: 2
V: 3 clef=bass middle=d
%%staves 1 {2 3}
%%scale 0.60
% - - - - - - - - - - - - - - - - - - - - - - - - - - - - -
V: 1
[| A3 A | d2 A2 | B2 G2 | A4 | A G F G | E2 F2 | D4- | D4 |
w: 1.~By the North Pole dwells, we know, Chil-ly lit-tle Es-ki-mo;_
w: 2.~Wrapped in fur-ry clothes you go,  Lit-tle bro-ther Es-ki-mo;_
w: 3.~Swift on snow-shoes you can go,    Clev-er lit-tle Es-ki-mo;_
%
F E D E | F2 G2 | A4- | A4 | F E D E | F2 G2 | A4- | A4 |
w: In the fields of ice a-lone_   Stands his house of turf or stone,_
w: Up a-bove you ice-bergs rise,_ North-ern Lights are in the skies;_
w: When you ride so far a-way,_   Then the rein-deer draws your sleigh._
%
A3 A | d2 A2 | B2 G2 | A4 | A G F G | A2 =B2 | c4- | c4 |
w: Sheet of ice for win-dow-pane, Would not you and I com-plain?_
w: Win-ter is as dark as night,   But your stars are very-y bright._
w: So the snow is full of joy     For the North-ern girl and boy._
%
"^Chorus."d2 c d | A2 G2 | A4- | A4 | A2 G A | F2 D2 | F4- F4 |
w: Dear lit-tle Es-ki-mo,_ Leave all your ice and snow!_
%
F4 | d3 d | c2 F2 | A4 | (AG) F G | E2 F2 | D4- | D2z2 |]
w: Come here with us to play Al* thro' our sun-ny day!_
% - - - - - - - - - - - - - - - - - - - - - - - - - - - - -
V: 2
[| A3A & z2[F2D2] | d2A2 & z2[F2D2] | B2G2 & z2[D2B,2] | A4 & z2[F2D2] | AG FG & z2D2 | G2F2 & z2[^C2G,2] | D4- & z2[A,2F,2] | D4 & z2[A,2F,2] |
FE DE & z2B,2 | F2G2 & z2[D2B,2] | A4- & z2[F2C2A,2] | A4 & z2[F2C2A,2] | FE DE & z2[A,2F,2] | F2G2 & z2[D2B,2] | A4 & z2[^C2A,2] | z2A2 & z2[^C2A,2] |
A3A & z2[F2D2] | d2A2 & z2[F2D2] | B2G2 & z2[D2B,2] | A4 & z2[F2D2A,2] | AG FG & z2D2 | A2=B2 & z2[F2D2] | c4- & z2E2 | c4 & z2E2 |
d2cd & z2[A2F2] | A2G2 & z2[E2B,2] | A4- & z2[F2C2A,2] | A4 & z2[F2C2A,2] | A2GA & z2[F2C2] | F2D2 & z2[B,2F,2] | F4- & z2[C2A,2] | F4 & z2[C2A,2] |
F4 & z2[D2B,2] | d3d & z2[F2D2] | c2F2 & z2C2 | A4 & z2D2 | AG FG & z2D2 | E2F2 & z2[^C2A,2] | D4 & z2[A,2F,2] | D2z2 & [A,2F,2]x2 |]
% - - - - - - - - - - - - - - - - - - - - - - - - - - - - -
V: 3
[| {^G}[A4D4] | {^G}[A4D4] | {^G}[A4D4] | {^G}[A4D4] | {^G}[A4D4] | {^G}[A4D4] | {^G}[A4D4] | {^G}[A4D4] |
z2f2 & B4 | z2f2 & B4 | z2[f2c2] & F4- | z2[f2c2] & F4 | d4 | z2f2 & B4 | A4 | F2 E2 |
{^G}[A4D4] | {^G}[A4D4] | {^G}[A4D4] | {^G}[A4D4] | z2a2 & d4 | z2g2 & G4 | z2g2 & c4 | z2b2 & c4 |
[c4F4] | [c4F4] | [c4F4] | [c4F4] | [c4F4] | [c4F4] | [c4F4] | [c4F4] |
z2f2 & B4 | z2f2 & B4 |  z2[a2f2] & F4 | z2[a2f2] & D4 | z2a2& A4 | z2g2 & A4 | d4 | [A2D2]z2 |]
% - - - - - - - - - - - - - - - - - - - - - - - - - - - - -
